X: 37207
T: Sir Wilfrid Laurier's
R: jig
M: 6/8
K: Gmajor
ba|gfg BAB|d3 d2g|f2ee2c|e3 e2g|
fef A2B|c3 cBc|[d2D2]e dBG|B3 Bba|
gfg BAB|d3 d2g|f2 e e2c|e3 (e2f)|
gag gdB|ded dBd|fed cBA|G3 G2D||
|:GDG GDG|BAB G2d|dBd dBd|ege c2e|
ece ece|g3fag|fed cBA|1 (A B2) B2A:|2 G3G3||

